icons/r-lang.svg

<svg xmlns="http://www.w3.org/2000/svg" viewBox="0 0 256 192.938">
  <defs>
    <linearGradient id="a" x1="78.82" x2="189.14" y1="35.285" y2="158.43" gradientTransform="scale(1.23332 .81082)" gradientUnits="userSpaceOnUse">
      <stop offset="0%" stop-color="#C9CBCE"/>
      <stop offset="100%" stop-color="#7B7A81"/>
    </linearGradient>
  </defs>
  <path fill="url(#a)" d="M149.333 149.333c-53.333 0-98.659-26.713-98.659-58.713S90.667 32 144 32c67.357 0 98.572 25.911 98.572 57.911s-34.407 59.422-93.239 59.422M128 0C58.667 0 0 37.333 0 85.333c0 45.334 58.312 82.969 127.646 82.969 69.333 0 128.354-34.969 128.354-82.969C256 37.333 197.333 0 128 0" style="fill:url(#a)"/>
  <path fill="#2165b6" d="M105.946 51.829v141.109h42.643v-54.875c10.661 0 17.011-2.328 23.986 10.452 10.661 18.292 23.987 44.423 23.987 44.423H247.2s-31.982-52.262-34.647-54.875c-4.915-5.227-10.661-5.227-18.656-7.84 15.991-2.613 30.899-9.248 36.082-23.464 4.531-13.065 3.998-29.685-5.714-40.83-8.411-8.819-17.042-14.1-38.364-14.1zm42.643 29.388h27.984c6.636 0 11.993 6.533 11.993 13.065 0 6.533-5.33 13.066-11.993 13.066h-27.984z"/>
</svg>

<?xml version="1.0" encoding="UTF-8" standalone="no"?>
<svg width="256px" height="193px" viewBox="0 0 256 193" version="1.1" xmlns="http://www.w3.org/2000/svg" xmlns:xlink="http://www.w3.org/1999/xlink" preserveAspectRatio="xMidYMid">
    <defs>
        <linearGradient x1="37.9725688%" y1="16.9988952%" x2="91.1208363%" y2="76.3260008%" id="linearGradient-1">
            <stop stop-color="#C9CBCE" offset="0%"></stop>
            <stop stop-color="#7B7A81" offset="100%"></stop>
        </linearGradient>
    </defs>
	<g>
		<path d="M149.333,149.333 C96,149.333 50.674,122.62 50.674,90.62 C50.674,58.62 90.667,32 144,32 C211.357,32 242.572,57.911 242.572,89.911 C242.572,121.911 208.165,149.333 149.333,149.333 M128,0 C58.667,0 0,37.333 0,85.333 C0,130.667 58.312,168.302 127.646,168.302 C196.979,168.302 256,133.333 256,85.333 C256,37.333 197.333,0 128,0" fill="url(#linearGradient-1)"></path>
		<path d="M105.946,51.829 L105.946,192.938 L148.589,192.938 L148.589,138.063 C159.25,138.063 165.6,135.735 172.575,148.515 C183.236,166.807 196.562,192.938 196.562,192.938 L247.2,192.938 C247.2,192.938 215.218,140.676 212.553,138.063 C207.638,132.836 201.892,132.836 193.897,130.223 C209.888,127.61 224.796,120.975 229.979,106.759 C234.51,93.694 233.977,77.074 224.265,65.929 C215.854,57.11 207.223,51.829 185.901,51.829 L105.946,51.829 L105.946,51.829 Z M148.589,81.217 L176.573,81.217 C183.209,81.217 188.566,87.75 188.566,94.282 C188.566,100.815 183.236,107.348 176.573,107.348 L148.589,107.348 L148.589,81.217 L148.589,81.217 Z" fill="#2165B6"></path>
	</g>
</svg>
